!!!ONB: MCCC : ILB0326_04 : Extracted Monophonic Melody
!!!COM: Beethoven, Ludwig van
!!!OPR: Violin Sonata No.5 in F major
!!!OMV: 4
!!!SCT: Op.24
!!!ODT: 1800///
**kern
*staff1
*clefG2
*k[b-]
*F:
*M2/2
8ccc
8bb
8ccc
8ddd
8ccc
8bb-
8aa
=10
4aa
4aa
2aa[
=11
8aa]
8aa
8gg#
8aa
8ccc
8bb-
8aa
8gg
=12
4gg
4gg
2gg[
=13
8gg]
8gg
8ff#
8gg
8bb-
8aa
8gg#
8aa
=14
8ccc
8bb-
8aa
8bb-
8ddd
8ccc
8bb
8ccc
=15
8ddd
8eee
8fff
8fff
8fff
8ccc
4aa[
=16
8aa]
8gg
8ccc
8bb-
8bb-
8aa
8bb-
8ccc
=17
8ddd
8eee
8fff
8fff
8fff
8ccc
4aa[
=18
8aa]
8gg
8ccc
8ee
2ff
=19
4a
4a
8a
8g
8cc
8b-
=20
8a
8g
8f
8e
4f
4c
=21
4f
24g
24f
24g
24f
24e
24f
4g
24a
24g
24a
24g
24f
24g
=22
4a
24b-
24a
24b-
24a
24g
24a
2g
=23
2r
4r
4g
=24
4e
4c
2f
=25
1r
=26
2r
8r
8A
8c
8f
=27
4a
4a
12a
12g
12cc
24b-
24r
24a
32r
16.g
=28
24f
24r
24e
32r
16.d
24c
24r
24d
32r
16.e
4f
4c
=29
8.f
16f
24g
24f
24g
24f
24e
24f
8.g
16g
24a
24g
24a
24g
24f
24g
=30
8.a
16a
24b-
24a
24b-
24a
24g
24a
2g
=31
2r
4r
4g
=32
4e
4c
2f
=33
1r
=34
2r
8r
16cc
16dd
4ee
=35
1r
=36
2r
8r
16cc
16dd
8ee
8ee
=37
8r
16d
16a
8cc
8cc
8r
16e
16g
8cc
8cc
=38
8r
16B
16d
8f
8f
2e
=39
4ee-
4dd
4cc
4b
=40
4cc
4ee-
2dd
=41
4c
16d
16c
16B
16c
4d
16e
16d
16c#
16d
=42
4B
16c
16B
16A
16B
4c
4B
=43
8ee-
8ee-
8dd
8dd
8cc
8cc
8b
8b
=44
8cc
8cc
8ee-
8ee-
2dd
=45
4cc
16dd
16cc
16b
16cc
4dd
16ee
16dd
16cc#
16dd
=46
4b
16cc
16b
16a
16b
2cc
=47
4ee
16ff
16ee
16dd
16ee
4ff
16gg
16ff
16ee
16ff
=48
4dd
16ee
16dd
16cc
16dd
4cc
4b
=49
4cc
4ee
2ff
=50
2r
8c
8cc
8B
8b
=51
8c
8cc
8e
8ee
8f
4.ff
=52
1c
=53
1c
=54
1c[
=55
4c]
4c
4c#
4d
=56
4e-
4e
2f
=57
1aa[
=58
2aa]
2r
=59
1gg[
=60
2gg]
2r
=61
1r
=62
1r
=63
1r
=64
8r
8ccc
8bb
8ccc
8ddd
8ccc
8bb-
8aa
=65
4aa
4aa
2aa[
=66
8aa]
8aa
8gg#
8aa
8ccc
8bb-
8aa
8gg
=67
4gg
4gg
2gg[
=68
8gg]
8gg
8ff#
8gg
8bb-
8aa
8gg#
8aa
=69
8ccc
8bb-
8aa
8bb-
8ddd
8ccc
8bb
8ccc
=70
8ddd
8eee
8fff
8fff
8fff
8ccc
4aa[
=71
8aa]
8gg
8ccc
8bb-
8bb-
8aa
8bb-
8ccc
=72
8ddd
8eee
8fff
8fff
8fff
8ccc
4aa[
=73
8aa]
8gg
8ccc
8ee
2ff
=74
24a
24r
24b-
32r
16.a
24g
24r
24f
32r
16.e
24d
24r
24a
32r
16.a
12b-
12a
12a
=75
12f
12a
12a
12b-
12a
12a
24g
24r
24a
32r
16.a
12b-
12a
12a
=76
24g
24r
24a
32r
16.a
12e
12a
12a
24c#
24r
24cc#
32r
16.cc#
12dd
12cc#
12cc#
=77
24e
24r
24ee
32r
16.ee
24c#
24r
24cc#
32r
16.cc#
24a
24r
24dd
32r
16.dd
12cc#
12dd
12dd
=78
24A
24r
24d
32r
16.d
12c#
12d
12d
24B
24r
24b
32r
16.b
12cc
12b
12b
=79
24B
24r
24b
32r
16.b
24A-
24r
24a-
32r
16.a-
24e
24r
24a
32r
16.a
12b
12a
12a
=80
24e
24r
24a
32r
16.a
12f#
12a
12a
24A
24r
24a
32r
16.a
12g#
12a
12a
=81
24d
24r
24a
32r
16.a
12g#
12f#
12a-
24A
24r
24c
32r
16.e
24a
24r
24cc
32r
16.ee
=82
4aa
4aa
4ff
4aa
=83
2ddd
2ddd
=84
2eee
2aaa
=85
2aaa
2ggg
=86
2fff#
2fff
=87
2eee
2ddd
=88
2ccc#
2ccc
=89
4bb]
4eee
2aa
=90
24ee-
24r
24cc
32r
16.a
24f#
24r
24e-
32r
16.c
24A
24r
24c
32r
16.c
12B
12c
12c
=91
24A
24r
24f#
32r
16.f#
12e
12f#
12f#
12A
12e
12f#
12G
12f#
12g
=92
24G
24r
24g
32r
16.g
12f#
12g
12g
24G
24r
24g
32r
16.g
12e
12g
12g
=93
24c#
24r
24cc#
32r
16.cc#
12b
12cc#
12cc#
12d
12b
12cc#
12d
12cc#
12dd
=94
24ff
24r
24dd
32r
16.a
24dd
24r
24a
32r
16.f
24d
24r
24f
32r
16.f
12e
12f
12f
=95
24d
24r
24f
32r
16.f
12e
12f
12f
24d
24r
24dd
32r
16.dd
12cc#
12dd
12dd
=96
24d
24r
24dd
32r
16.dd
12cc#
12dd
12dd
24d
24r
24dd
32r
16.dd
12ff
12dd
12dd
=97
24gg
24r
24ee
32r
16.cc#
24a
24r
24g
32r
16.e
24d
24r
24f#
32r
16.a
24cc
24r
24ff#
32r
16.gg
=98
4aa
4aa
4ff#
4eee-[
=99
4eee-]
4ddd
4ccc
4bb-
=100
4ee-
8dd
8dd
2bb-[
=101
4bb-]
4aa
4gg
4ff
=102
4aa
4aa
4ff
4aa
=103
2ddd
2fff
=104
2fff
2aa[
=105
4aa]
4cc#
2dd
=106
1r
=107
1r
=108
1c#[
=109
2c#]
2r
=110
1r
=111
1r
=112
2r
2f#
=113
4a
4dd
2ff#[
=114
2ff#]
4e
4g
=115
4cc#
4ee
2gg[
=116
2gg]
2r
=117
2r
2dd[
=118
4.dd]
8dd
4dd
4g
=119
2r
2gg[
=120
4.gg]
8gg
4gg
4cc
=121
2r
2cc[
=122
4.cc]
8cc
4cc
4c
=123
1c[
=124
2c]
2f
=125
4a
4cc
8.ff
32ff[
32ff]
4aa
=126
2r
2e
=127
4g
4b-
4ee
4gg
=128
2r
4f
4a
=129
4e
4b-
4f
4cc
=130
4dd
4ee
4ff
4cc
=131
4b-
4a
4c
4cc
=132
8r
8ccc
8bb
8ccc
8ddd
8ccc
8bb-
8aa
=133
4aa
4aa
2aa[
=134
8aa]
8aa
8gg#
8aa
8ccc
8bb-
8aa
8gg
=135
4gg
4gg
2gg[
=136
8gg]
8gg
8ff#
8gg
8bb-
8aa
8gg#
8aa
=137
8ccc
8bb-
8aa
8bb-
8ddd
8ccc
8bb
8ccc
=138
8ddd
8eee
8fff
8fff
8fff
8ccc
4aa[
=139
8aa]
8gg
8ccc
8bb-
8bb-
8aa
8bb-
8ccc
=140
8ddd
8eee
8fff
8fff
8fff
8ccc
4aa[
=141
8aa]
8gg
8ccc
8ee
2ff
=142
4a
4a
8a
8g
8cc
8b-
=143
8a
8g
8f
8e
4f
4c
=144
4f
24g
24f
24g
24f
24e
24f
4g
24a
24g
24a
24g
24f
24g
=145
4a
24b-
24a
24b-
24a
24g
24a
2g
=146
2r
4r
4g
=147
4e
4c
2f
=148
1r
=149
1r
=150
4a-
4a-
12a-
12g
12cc
24b-
24r
24a-
32r
16.g
=151
24f
24r
24e
32r
16.d
24c
24r
24d
32r
16.e
4f
4c
=152
8.f
16f
24g
24f
24g
24f
24e
24f
8.g
16g
24a
24g
24a
24g
24f
24g
=153
8.a-
16a-
24b-
24a-
24b-
24a-
24g
24a-
2g
=154
2r
4r
4b-
=155
4g
4e-
2a-
=156
1r
=157
2r
8r
16ee-
16ff
4gg
=158
1r
=159
2r
8r
16ee-
16ff
8gg
8gg
=160
8r
16f
16cc
8ee-
8ee-
8r
16g
16b-
8ee-
8ee-
=161
8r
16d
16f
8a-
8a-
2g
=162
4ff#
4ff
4ee-
4dd
=163
4ee-
4ff#
2ff
=164
4e-
16f
16e-
16d
16e-
4f
16g
16f
16e
16f
=165
4d
16e-
16d
16c
16d
4e-
4d
=166
8ff#
8ff#
8ff
8ff
8ee-
8ee-
8dd
8dd
=167
8ee-
8ee-
8ff#
8ff#
2ff
=168
4r
4b-
4ee-
4b
=169
4r
4a-
4cc#
4b-
=170
4r
4f#
4b
4a-
=171
4r
4f
4b-
4f#
=172
4dd
16ee-
16dd
16cc
16dd
4ee-
16ff
16ee-
16dd
16ee-
=173
4cc
16cc#
16cc
16b-
16cc
2cc#
=174
4b-
16cc
16b-
16a
16b-
4cc
16cc#
16cc
16b-
16cc
=175
4a
16b-
16a
16g
16a
2b-
=176
8f
8ff
8e-
8ee-
8c#
8cc#
8B-
8b-
=177
8e-
8ee-
8c#
8cc#
8c
8cc
8A-
8a-
=178
8c#
8cc#
8c
8cc
8B-
8b-
8G
8g
=179
8c
8cc
8B-
8b-
8A-
8a-
8c
8cc
=180
8f
8ff
8g
8gg
8a-
8aa-
8a
8aa
=181
8b-
8bb-
8b
8bb
4ccc
4b
=182
4cc
4ee
2ff
=183
2r
8c
8cc
8B
8b
=184
8c
8cc
8e
8ee
8f
4.ff
=185
1c
=186
1c
=187
1c[
=188
4c]
4c
4c#
4d
=189
4e-
4e
2a
=190
1a
=191
2b-
2b-
=192
1b-[
=193
2b-]
4r
4a
=194
4r
4b-
4r
4cc
=195
4dd
4ee
4ff
4cc
=196
4b-
4a
4c
4cc
=197
8r
8ccc
8bb
8ccc
8.ddd
16ccc
8.bb-
16aa
=198
4aa
4aa
2aa[
=199
8aa]
16fff
16eee
16ddd
16ccc
16bb-
16aa
8.ccc
16bb-
8.aa
16gg
=200
4gg
4gg
2gg[
=201
8gg]
8gg
8ff#
8gg
8.bb-
16aa
8.gg#
16aa
=202
8.ccc
16bb-
8.aa
16bb-
8.ddd
16ccc
8.bb
16ccc
=203
8ddd
8eee
8fff
8fff
8fff
8ccc
4aa[
=204
8aa]
8gg
8ccc
8bb-
12bb-
12aa
12gg#
24aa
24r
24bb-
32r
16.ccc
=205
24ddd
24r
24eee
32r
16.fff
24fff
24r
24fff
32r
16.fff
8fff
8ccc
4aa[
=206
8aa]
8gg
8ccc
8ee
12ff
12aa
12gg#
24aa
24r
24ff
32r
16.dd
=207
24gg
24r
24ee
32r
16.cc#
24a
24r
24g
32r
16.e
12d
12ff
12ee
24ff
24r
24dd
32r
16.b-
=208
24ee-
24r
24cc
32r
16.a
24f
24r
24e-
32r
16.c
12B-
12ddd
12ccc#
24ddd
24r
24bb-
32r
16.gg
=209
24ccc
24r
24aa
32r
16.ff#
24dd
24r
24cc
32r
16.a
2b-
=210
1b-
=211
1bb-
=212
2.bb-
4bb-[
=213
8bb-]
8gg
8aa
8bb-
2ccc[
=214
4ccc]
12ddd
12bb-
12gg
2ff
=215
8.gg
16aa
16gg
16ff
32gg
32aa
16aa
2aa[
=216
4aa]
8a
32b
32cc#
16dd
2ff[
=217
4ff]
8f
32g
32a
16b-
2dd[
=218
4dd]
8d
16e
16f#
12g
12B-
12d
12G
12B-
12d
=219
12G
12B-
12d
12G
12B-
12d
12G
12B-
12e
12G
12B-
12e
=220
12G
12B-
12e
12G
12B-
12e
12G
12B-
12e
12G
12B-
12e
=221
12G
12B-
12e
12G
12B-
12e
12G
12B-
12e
12G
12B-
12e
=222
12G
12c
12e
12c
12f
12g
24a
24r
24cc
32r
16.a
24e
24r
24g
32r
16.b-
=223
24c
24r
24f
32r
16.a
24B-
24r
24d
32r
16.g
24A
24r
24c
32r
16.f
24a
24r
24f
32r
16.c
=224
24B-
24r
24c
32r
16.e
24B-
24r
24c
32r
16.e
2A
=225
1r
=226
1r
=227
1r
=228
1r
=229
4aa
4aa
4aa
4bb
=230
4ccc
4ccc
2fff
=231
4aa
4bb
2ccc
=232
4ff
24aa
24gg
24aa
24gg
24ff
24gg
4aa-
4aa
=233
8r
8aa
8bb-
8bb
4ddd
4ccc
=234
8r
8ff
8ff#
8gg
4aa-
4aa
=235
24bb-
24aa
24bb-
24aa
24bb-
24aa
24ccc
24bb
24ccc
24bb
24ccc
24bb
8.ddd
16ccc
4fff
=236
24gg
24ff
24gg
24ff
24ee
24ff
8.aa
16gg
12ff
12aa-
12aa
12ee
12ff
12b
=237
12cc
12a-
12a
12e
12f
12d
2c
=238
16r
16cc
32r
16.cc
24cc
24r
24dd
32r
16.ee
12ff
12aa-
12aa
12ee
12ff
12b
=239
12cc
12a-
12a
12e
12f
12d
2c
=240
16r
16cc
32r
16.cc
24cc
24r
24dd
32r
16.ee
2ff
=241
16r
16cc
32r
16.cc
24cc
24r
24dd
32r
16.ee
2ff
=242
16r
16ccc
32r
16.ccc
24ccc
24r
24ddd
32r
16.eee
2fff
=243
2cc
2f
=244
4r
8r
16r
16f
2r
==
*-
